X:198
T:Sister Jean
S:Various sources
Z:Nigel Gatherer
M:2/4
L:1/16
K:D
ABde f2 fd|g2 ge f3 g|f2 ef gecd|e2 d2 dedB|ABde f2 fd|g2 ge f3 g|
f2 ef gecd|e2 d2 defg||a2 A2 AFAd|B2 G2 A3 g|f2 ef gecd|
e2 d2 defg|a2 A2 AFAd|B2 G2 A3 g|f2 ef gecd|e2 d2 d4|]
<end>
<start>
